X: 42204
T: Waverly
R: reel
M: 4/4
K: Gmajor
|:D2E2 G2AG|BGAG BddB|~d2de ~B2BA|GBAG EGGE|
D2ED G2Ac|BGAG Bdd2|efed B2 (3A_BA|GBAG EGGE:|
|:[M:6/4]fg{a}gf gfed ABd2|[M:4/4]efed ~B2~A2|GBAG EGGD|
M:6/4
fg2f gfed Bdd2|[M:4/4]efed B2(3A_BA|GBAG EGG2:|

